X: 1063
T: Amanda Lynn's
R: jig
M: 6/8
K: Gmajor
|:B2G ABc|Bcd ecA|dBG AFD|CEG FGA|
B3 Bcd|efg afd|cdB AGF|1 GDE FGA:|2 GAB cde||
|:f2B fga|gfe dcB|cde d2B|cdB ABc|
dBG dBG|cde d2B|cdB AGF|1 GAB cde:|2 GDE FGA||

